X:1
T:E minor                        Jacob Kimball, 1793
T:Isaac Watts, 1707 (Hymn 83, Book 1)                   86. 86. (C. M.)                               
T:Leicester
T:Transcribed from Kimball's Rural Harmony, 1793.
%%score [ 1 2 3 4 ]
L:1/8
Q:1/4=110
M:2/2
K:G
V:1 treble nm="Tr." snm="Tr."
V:2 treble nm="C." snm="C."
V:3 treble-8 nm="T." snm="T."
V:4 bass nm="B." snm="B."
V:1
"^1. Not from the dust af–flic    –      tion  grows, Nor trou – bles  rise  by chance; Yet we  are    born  to   cares  and  woes;  A    sad   in – her – i –  tance!""^2. Yet with my God I leave ______my cause,  And  trust  his  promised grace;  He rules me   by    his  well–known laws   Of  love and  right–eous–ness." B8 | %1
 G2 G2 A2 c2 | (B2 ef g2) e2 | ^d6 e2 | B2 B2 B2 B2 | B6 B2 | e6 e2 | f6 f2 | d6 GA | B6 B2 | %10
 [Ge]2 [Ge]2 B2 B2 | B8 |: z8 | z8 | z8 | %15
 z4 z2"^1. As sparks break out from burning coals, And still are upwards borne  So grief is roo–ted""^2. Not  all   the   pains  that   e'er  I bore  Shall spoil my future peace, For death and hell can" E2 | %16
 B2 B2 BA GF | E2 E2 E2 B2 | G2 A2 B2 c2 | B6 B2 | e2 e2 e2 B2 | %21
"^1.  in   our  souls,  And    man ______  grows  up      to       mourn.""^2.  do   no   more   Than  what ______  my     Fa –   ther    please." AB c2 B2 B2 | %22
 (ed c2 B2) c2 | B4 B4 | B8 :| %25
V:2
 E8 | E2 E2 A2 F2 | (G>AG>F E2) E2 | F6 G2 | G2 G2 E2 ^D2 | E6 G2 | G6 A2 | A6 A2 | G6 G2 | F6 G2 | %10
 E2 E2 E2 ^D2 | E8 |: z8 | z8 | %14
 z4 z2"^1. As sparks break out from burning coals, And      still          are   up    –    wards  borne   So   grief  is   roo–ted""^2.  Not  all   the  pains  that  e'er  I    bore   Shall     spoil         my   fu     –      ture  peace,  For death and  hell can" E2 | %15
 B2 B2 BA GF | E2 E2 E2 EF | G6 E2 | B6 AG | F6 E2 | GA GF E2 G2 | %21
"^1.  in   our  souls,  And    man ______  grows  up      to       mourn.""^2.  do   no   more   Than  what ______  my     Fa –   ther    please." F2 E2 ^D2 E2 | %22
 G6 FE | E4 ^D4 | E8 :| %25
V:3
"^1. Not from the dust af–flic    –      tion  grows, Nor trou – bles  rise  by chance; Yet we  are    born  to   cares  and  woes;  A    sad   in – her – i –  tance!""^2. Yet with my God I leave ______my cause,  And  trust  his  promised grace;  He rules me   by    his  well–known laws   Of  love and  right–eous–ness." E8 | %1
 B2 B2 c2 A2 | (B>cB>A G2) A2 | B6 B2 | e^d ef g2 f2 | e6 e2 | B6 cB | A6 dc | B6 e2 | ^d6 e2 | %10
 Bc BA G2 F2 | E8 |: z8 | %13
 z4 z2"^1. As sparks break out from burning coals, And  still  are  upwards  borne,       And  still  are upeards borne,  So  grief    is   roo–ted""^2. Not  all  the   pains  that   e'er   I    bore  Shall   spoil  my  future  peace,       Shall  spoil  my future peace,  For death and hell can" E2 | %14
 B2 B2 BA GF | E2 E2 E2 EF | G2 B2 e2 e^d | e6 e2 | g2 f2 e2 fe | ^d6 e2 | Bc BA G2 B2 | %21
"^1.  in   our  souls,  And    man ______  grows  up      to       mourn.""^2.  do   no   more   Than  what ______  my     Fa –   ther    please." cB AG F2 GA | %22
 (B2 e2 B2) cA | G4 F4 | E8 :| %25
V:4
 E,8 | E,2 E,2 F,2 F,2 | E,6 C,2 | B,,6 E,2 | E,2 E,2 B,,2 B,,2 | E,6 E,2 | E,6 A,G, | F,6 F,2 | %8
 G,6 E,2 | B,6 E,2 | G,A, G,F, E,2 B,,2 | E,8 |: %12
 z4"^1. As sparks break out from burning coals, And  still             are      up       –       wards    borne,    And  still are upeards borne,  So  grief   is    roo–ted""^2. Not  all  the  pains  that  e'er  I   bore    Shall   spoil            my      fu        –        ture      peace,   Shall  spoil my  future peace,  For death and hell can" E,4 | %13
 B,2 B,2 B,A, G,F, | E,2 E,2 E,2 E,F, | G,6 B,2 | E,6 B,,2 | E,6 E,2 | E,2 F,2 G,2 A,2 | B,6 E,2 | %20
 E,2 E,2 E,2 E,2 | A,,2 A,,2 B,,2 E,2 | (E,3 F, G,2) A,2 | B,4 B,,4 | E,8 :| %25

